assets/img/braze_icons/marker-pin-05.svg

<svg fill="none" height="24" viewBox="0 0 24 24" width="24" xmlns="http://www.w3.org/2000/svg"><g fill="#801ed7"><path d="m12.0035 2.00001c.0409.0001.0819.00271.1228.00789.152.01915.2933.07241.4162.15187l5.3272 3.27833c.1693.10409.3496.21497.4919.3216.1458.10932.3887.31054.5246.64079.1619.39345.1491.83713-.0352 1.22058-.1547.32186-.4088.50873-.5608.60946-.1482.09825-.3345.19854-.5095.2927l-4.7807 2.57417v5.9026c0 .5523-.4477 1-1 1s-1-.4477-1-1v-6.4799c-.0002-.0127-.0002-.0255 0-.0382v-7.46659c-.0013-.083.0076-.16662.0274-.24886.0363-.1516.1071-.2898.2036-.4058.1835-.22037.4599-.36065.769-.36065z"/><path d="m8.19292 14.3554c.54191-.1065.89484-.6322.78829-1.1741-.10654-.5419-.63222-.8948-1.17413-.7883-1.8502.3638-3.48783.9721-4.69067 1.7834-1.18075.7963-2.11641 1.9183-2.11641 3.3234 0 1.8812 1.64633 3.2514 3.51857 4.0939 1.96611.8847 4.61209 1.4061 7.48143 1.4061 2.8693 0 5.5153-.5214 7.4814-1.4061 1.8723-.8425 3.5186-2.2127 3.5186-4.0939 0-1.4051-.9357-2.5271-2.1164-3.3234-1.2029-.8113-2.8405-1.4196-4.6907-1.7834-.5419-.1065-1.0676.2464-1.1741.7883-.1066.5419.2464 1.0676.7883 1.1741 1.6816.3307 3.044.8625 3.9582 1.4791.9363.6315 1.2347 1.2251 1.2347 1.6653 0 .604-.5923 1.4839-2.3393 2.27-1.6532.744-4.0072 1.23-6.6607 1.23-2.65351 0-5.00752-.486-6.6607-1.23-1.74705-.7861-2.3393-1.666-2.3393-2.27 0-.4402.29844-1.0338 1.23474-1.6653.9142-.6166 2.27657-1.1484 3.95818-1.4791z"/></g></svg>

<svg width="24" height="24" viewBox="0 0 24 24" fill="none" xmlns="http://www.w3.org/2000/svg">
<path d="M12.0035 2.00001C12.0444 2.00011 12.0854 2.00272 12.1263 2.0079C12.2783 2.02705 12.4196 2.08031 12.5425 2.15977L17.8697 5.4381C18.039 5.54219 18.2193 5.65307 18.3616 5.7597C18.5074 5.86902 18.7503 6.07024 18.8862 6.40049C19.0481 6.79394 19.0353 7.23762 18.851 7.62107C18.6963 7.94293 18.4422 8.1298 18.2902 8.23053C18.142 8.32878 17.9557 8.42907 17.7807 8.52323L13 11.0974V17C13 17.5523 12.5523 18 12 18C11.4477 18 11 17.5523 11 17V10.5201C10.9998 10.5074 10.9998 10.4946 11 10.4819V3.01531C10.9987 2.93231 11.0076 2.84869 11.0274 2.76645C11.0637 2.61485 11.1345 2.47665 11.231 2.36065C11.4145 2.14028 11.6909 2 12 2L12.0035 2.00001Z" fill="#801ED7"/>
<path d="M8.19292 14.3554C8.73483 14.2489 9.08776 13.7232 8.98121 13.1813C8.87467 12.6394 8.34899 12.2865 7.80708 12.393C5.95688 12.7568 4.31925 13.3651 3.11641 14.1764C1.93566 14.9727 1 16.0947 1 17.4998C1 19.381 2.64633 20.7512 4.51857 21.5937C6.48468 22.4784 9.13066 22.9998 12 22.9998C14.8693 22.9998 17.5153 22.4784 19.4814 21.5937C21.3537 20.7512 23 19.381 23 17.4998C23 16.0947 22.0643 14.9727 20.8836 14.1764C19.6807 13.3651 18.0431 12.7568 16.1929 12.393C15.651 12.2865 15.1253 12.6394 15.0188 13.1813C14.9122 13.7232 15.2652 14.2489 15.8071 14.3554C17.4887 14.6861 18.8511 15.2179 19.7653 15.8345C20.7016 16.466 21 17.0596 21 17.4998C21 18.1038 20.4077 18.9837 18.6607 19.7698C17.0075 20.5138 14.6535 20.9998 12 20.9998C9.34649 20.9998 6.99248 20.5138 5.3393 19.7698C3.59225 18.9837 3 18.1038 3 17.4998C3 17.0596 3.29844 16.466 4.23474 15.8345C5.14894 15.2179 6.51131 14.6861 8.19292 14.3554Z" fill="#801ED7"/>
</svg>
